images/icons/settings.svg

<svg width="48" height="48" viewBox="0 0 48 48" fill="none" xmlns="http://www.w3.org/2000/svg">
<path d="M19.4 44L18.4 37.7C17.7667 37.4667 17.1 37.15 16.4 36.75C15.7 36.35 15.0833 35.9333 14.55 35.5L8.65 38.2L4 30L9.4 26.05C9.33333 25.75 9.29167 25.4083 9.275 25.025C9.25833 24.6417 9.25 24.3 9.25 24C9.25 23.7 9.25833 23.3583 9.275 22.975C9.29167 22.5917 9.33333 22.25 9.4 21.95L4 18L8.65 9.8L14.55 12.5C15.0833 12.0667 15.7 11.65 16.4 11.25C17.1 10.85 17.7667 10.55 18.4 10.35L19.4 4H28.6L29.6 10.3C30.2333 10.5333 30.9083 10.8417 31.625 11.225C32.3417 11.6083 32.95 12.0333 33.45 12.5L39.35 9.8L44 18L38.6 21.85C38.6667 22.1833 38.7083 22.5417 38.725 22.925C38.7417 23.3083 38.75 23.6667 38.75 24C38.75 24.3333 38.7417 24.6833 38.725 25.05C38.7083 25.4167 38.6667 25.7667 38.6 26.1L44 30L39.35 38.2L33.45 35.5C32.9167 35.9333 32.3083 36.3583 31.625 36.775C30.9417 37.1917 30.2667 37.5 29.6 37.7L28.6 44H19.4ZM24 30.5C25.8 30.5 27.3333 29.8667 28.6 28.6C29.8667 27.3333 30.5 25.8 30.5 24C30.5 22.2 29.8667 20.6667 28.6 19.4C27.3333 18.1333 25.8 17.5 24 17.5C22.2 17.5 20.6667 18.1333 19.4 19.4C18.1333 20.6667 17.5 22.2 17.5 24C17.5 25.8 18.1333 27.3333 19.4 28.6C20.6667 29.8667 22.2 30.5 24 30.5Z" fill="#CDCDCD"/>
</svg>

<svg xmlns="http://www.w3.org/2000/svg" height="48" width="48"><path d="m19.4 44-1-6.3q-.95-.35-2-.95t-1.85-1.25l-5.9 2.7L4 30l5.4-3.95q-.1-.45-.125-1.025Q9.25 24.45 9.25 24q0-.45.025-1.025T9.4 21.95L4 18l4.65-8.2 5.9 2.7q.8-.65 1.85-1.25t2-.9l1-6.35h9.2l1 6.3q.95.35 2.025.925Q32.7 11.8 33.45 12.5l5.9-2.7L44 18l-5.4 3.85q.1.5.125 1.075.025.575.025 1.075t-.025 1.05q-.025.55-.125 1.05L44 30l-4.65 8.2-5.9-2.7q-.8.65-1.825 1.275-1.025.625-2.025.925l-1 6.3ZM24 30.5q2.7 0 4.6-1.9 1.9-1.9 1.9-4.6 0-2.7-1.9-4.6-1.9-1.9-4.6-1.9-2.7 0-4.6 1.9-1.9 1.9-1.9 4.6 0 2.7 1.9 4.6 1.9 1.9 4.6 1.9Z"/></svg>
